build/images/adobe-after-effects-logo.svg

<svg width="90" height="90" viewBox="0 0 90 90" fill="none" xmlns="http://www.w3.org/2000/svg">
<path d="M4.07031 4.45312H85.8308V85.458H4.07031V4.45312Z" fill="url(#paint0_radial)"/>
<path d="M4.07031 4.45367H85.8308V85.4586H4.07031V4.45367ZM0.354736 89.2423H89.5643V0.669922H0.354736V89.2423ZM63.4659 43.3644C65.3594 43.3644 66.0383 43.3644 66.2169 43.2916C66.2169 43.0188 66.2883 42.8369 66.2883 42.6549C66.2883 40.6175 65.3237 36.8338 61.4652 36.8338C57.8926 36.8338 56.3742 40.0172 55.9991 43.3826H63.4659V43.3644ZM55.9276 48.5489C55.9991 53.6606 58.3749 57.0987 64.0376 57.0987C66.2347 57.0987 68.1283 56.7894 70.0932 55.9344C70.3612 55.8253 70.5398 55.8617 70.5398 56.2073V60.937C70.5398 61.319 70.4326 61.5009 70.1647 61.701C68.1997 62.6833 65.7346 63.1381 62.6978 63.1381C52.8908 63.1381 49.211 55.7525 49.211 47.5483C49.211 38.6165 53.7483 31.3037 61.7332 31.3037C69.8431 31.3037 72.6656 38.2345 72.6656 43.8737C72.6656 45.6929 72.5584 47.1663 72.3619 47.894C72.2904 48.2032 72.1832 48.3124 71.8796 48.3851C71.1293 48.4943 68.95 48.658 65.681 48.658H55.9455V48.5489H55.9276ZM35.9921 44.6923C34.956 40.4902 32.4194 31.3401 31.4905 26.9015H31.4191C30.6331 31.3219 28.5967 38.8166 27.0783 44.6923H35.9921ZM25.5599 50.8227L22.6303 62.1376C22.5589 62.4468 22.4517 62.556 22.0766 62.556H16.5925C16.2174 62.556 16.1459 62.4468 16.2174 61.9921L26.7746 24.4093C26.9533 23.7362 27.0783 23.1905 27.1498 21.2986C27.1498 21.0257 27.2569 20.9166 27.4534 20.9166H35.2597C35.5277 20.9166 35.6348 20.9894 35.7063 21.2986L47.514 62.0648C47.5854 62.3741 47.514 62.556 47.2103 62.556H41.0832C40.7795 62.556 40.6008 62.4468 40.5294 62.174L37.4748 50.8227H25.5599Z" fill="#D8A1FF"/>
<defs>
<radialGradient id="paint0_radial" cx="0" cy="0" r="1" gradientUnits="userSpaceOnUse" gradientTransform="translate(31.0228 22.6143) scale(62.1407 61.2673)">
<stop stop-color="#442F55" stop-opacity="0.98"/>
<stop offset="1" stop-color="#12002C"/>
</radialGradient>
</defs>
</svg>

<svg width="90" height="90" fill="none" xmlns="http://www.w3.org/2000/svg"><path d="M4.07 4.453h81.76v81.005H4.07V4.453z" fill="url(#paint0_radial)"/><path d="M4.07 4.454h81.76v81.005H4.07V4.454zM.355 89.242h89.21V.67H.354v88.572zm63.11-45.878c1.894 0 2.573 0 2.752-.072 0-.273.071-.455.071-.637 0-2.038-.964-5.821-4.823-5.821-3.572 0-5.09 3.183-5.466 6.549h7.467v-.019zm-7.537 5.185c.071 5.112 2.447 8.55 8.11 8.55 2.197 0 4.09-.31 6.055-1.165.268-.109.447-.072.447.273v4.73c0 .382-.107.564-.375.764-1.965.982-4.43 1.437-7.467 1.437-9.807 0-13.487-7.386-13.487-15.59 0-8.931 4.537-16.244 12.522-16.244 8.11 0 10.933 6.93 10.933 12.57 0 1.819-.108 3.292-.304 4.02-.072.31-.179.418-.482.491-.75.11-2.93.273-6.199.273h-9.735v-.11h-.018zm-19.936-3.857c-1.036-4.202-3.573-13.352-4.501-17.79h-.072c-.786 4.42-2.822 11.915-4.34 17.79h8.913zm-10.432 6.13l-2.93 11.316c-.071.309-.178.418-.553.418h-5.485c-.375 0-.446-.11-.375-.564L26.775 24.41c.178-.673.303-1.218.375-3.11 0-.273.107-.382.303-.382h7.807c.268 0 .375.072.446.382l11.808 40.766c.071.31 0 .491-.304.491h-6.127c-.303 0-.482-.11-.554-.382l-3.054-11.351H25.56z" fill="#D8A1FF"/><defs><radialGradient id="paint0_radial" cx="0" cy="0" r="1" gradientUnits="userSpaceOnUse" gradientTransform="matrix(62.1407 0 0 61.2673 31.023 22.614)"><stop stop-color="#442F55" stop-opacity=".98"/><stop offset="1" stop-color="#12002C"/></radialGradient></defs></svg>
